X: 11163
M: 6/8
L: 1/8
K: D
|:\
|:\
d2A e2A | f>ed dAB | AFD D2 (d/e/) | f(g/f/).e/.d/ {f}e2d |\
d2A e>fg | f>ed (ed).B | A>BA ADE | FA{G}F E2D :|



